assets/icons/best-practice.svg

<svg width="58" height="57" viewBox="0 0 58 57" fill="none" xmlns="http://www.w3.org/2000/svg">
<path d="M42.7649 35.9879C41.3272 35.9879 40.1771 34.7279 40.1771 33.1529C40.1771 31.7669 41.9598 29.2469 42.3623 28.7429L42.7649 28.1759L43.1674 28.7429C43.5124 29.2469 45.3526 31.7669 45.3526 33.1529C45.2951 34.7279 44.145 35.9879 42.7649 35.9879ZM42.7649 30.0029C42.0173 31.0739 41.2122 32.5229 41.2122 33.1529C41.2122 34.0979 41.9023 34.8539 42.7649 34.8539C43.6275 34.8539 44.3175 34.0979 44.3175 33.1529C44.3175 32.5229 43.4549 31.1369 42.7649 30.0029Z" fill="white"/>
<path d="M29.5961 35.9879C28.1584 35.9879 27.0083 34.7279 27.0083 33.1529C27.0083 31.7669 28.791 29.2469 29.1935 28.7429L29.5961 28.1759L29.9986 28.7429C30.3436 29.2469 32.1838 31.7669 32.1838 33.1529C32.1838 34.7279 31.0337 35.9879 29.5961 35.9879ZM29.5961 30.0029C28.8485 31.0739 28.0434 32.5229 28.0434 33.1529C28.0434 34.0979 28.7335 34.8539 29.5961 34.8539C30.4587 34.8539 31.1487 34.0979 31.1487 33.1529C31.1487 32.5229 30.3436 31.1369 29.5961 30.0029Z" fill="white"/>
<path d="M14.7595 35.9879C13.3219 35.9879 12.1718 34.7279 12.1718 33.1529C12.1718 31.7669 13.9544 29.2469 14.357 28.7429L14.7595 28.1759L15.162 28.7429C15.5071 29.2469 17.3473 31.7669 17.3473 33.1529C17.3473 34.7279 16.1971 35.9879 14.7595 35.9879ZM14.7595 30.0029C14.0119 31.0739 13.2069 32.5229 13.2069 33.1529C13.2069 34.0979 13.8969 34.8539 14.7595 34.8539C15.6221 34.8539 16.3122 34.0979 16.3122 33.1529C16.3122 32.5229 15.5071 31.1369 14.7595 30.0029Z" fill="white"/>
<path d="M29.1934 51.738C28.9059 51.738 28.6758 51.486 28.6758 51.234C28.6758 50.919 28.8484 50.667 29.1359 50.667C29.2509 50.667 32.3562 50.415 33.8514 46.887C35.1165 43.989 34.0814 41.532 33.6789 40.713C32.8738 40.839 30.516 41.532 29.2509 44.43C28.6183 45.942 28.4458 47.517 28.8484 49.092C28.9059 49.407 28.7908 49.722 28.5033 49.785C28.2158 49.848 27.9283 49.722 27.8708 49.407C27.5832 48.147 27.3532 46.194 28.3308 43.989C30.1135 39.894 33.7939 39.579 33.9089 39.579C34.0814 39.579 34.2539 39.642 34.3689 39.831C34.4839 39.957 36.5542 43.233 34.7715 47.391C33.0463 51.486 29.4234 51.738 29.1934 51.738C29.2509 51.738 29.2509 51.738 29.1934 51.738Z" fill="white"/>
<path d="M29.0785 51.738C28.9059 51.738 25.2255 51.423 23.4429 47.328C21.6602 43.233 23.7879 39.894 23.8454 39.768C23.9604 39.642 24.1329 39.516 24.3054 39.516C24.4205 39.516 26.7782 39.705 28.6759 41.91C28.8484 42.162 28.8484 42.477 28.6759 42.666C28.4459 42.855 28.1584 42.855 27.9858 42.666C26.7207 41.217 25.2255 40.776 24.593 40.65C24.1904 41.469 23.1553 43.863 24.4205 46.824C25.9156 50.352 29.021 50.604 29.136 50.604C29.4235 50.604 29.6535 50.919 29.596 51.171C29.596 51.549 29.366 51.738 29.0785 51.738Z" fill="white"/>
<path d="M29.136 56.148C28.8484 56.148 28.6184 55.896 28.6184 55.581V51.234C28.6184 50.919 28.8484 50.667 29.136 50.667C29.4235 50.667 29.6535 50.919 29.6535 51.234V55.581C29.6535 55.896 29.4235 56.148 29.136 56.148Z" fill="white"/>
<path d="M44.7775 51.738C44.49 51.738 44.2599 51.486 44.2599 51.234C44.2599 50.919 44.4325 50.667 44.72 50.667C44.835 50.667 47.9403 50.415 49.4355 46.887C50.7006 43.989 49.6655 41.532 49.2629 40.713C48.4579 40.839 46.1001 41.532 44.835 44.43C44.2024 45.942 44.0299 47.517 44.4325 49.092C44.49 49.407 44.3749 49.722 44.0874 49.785C43.7999 49.848 43.5124 49.722 43.4549 49.407C43.1673 48.147 42.9373 46.194 43.9149 43.989C45.6976 39.894 49.3779 39.579 49.493 39.579C49.6655 39.579 49.838 39.642 49.953 39.831C50.068 39.957 52.1382 43.233 50.3555 47.391C48.6304 51.486 44.95 51.738 44.7775 51.738Z" fill="white"/>
<path d="M44.6625 51.738C44.605 51.738 44.605 51.738 44.6625 51.738C44.49 51.738 40.8096 51.423 39.027 47.328C37.2443 43.233 39.372 39.894 39.4295 39.768C39.5445 39.642 39.717 39.516 39.8895 39.516C40.0046 39.516 42.3623 39.705 44.26 41.91C44.4325 42.162 44.4325 42.477 44.26 42.666C44.03 42.855 43.7424 42.855 43.5699 42.666C42.3048 41.217 40.8096 40.776 40.1771 40.65C39.7745 41.469 38.7394 43.863 40.0046 46.824C41.4997 50.352 44.605 50.604 44.72 50.604C45.0075 50.604 45.2376 50.919 45.1801 51.171C45.1226 51.549 44.8925 51.738 44.6625 51.738Z" fill="white"/>
<path d="M44.6626 56.148C44.375 56.148 44.145 55.896 44.145 55.581V51.234C44.145 50.919 44.375 50.667 44.6626 50.667C44.9501 50.667 45.1801 50.919 45.1801 51.234V55.581C45.1801 55.896 44.9501 56.148 44.6626 56.148Z" fill="white"/>
<path d="M13.4943 51.738C13.2068 51.738 12.9767 51.486 12.9767 51.234C12.9767 50.919 13.1493 50.667 13.4368 50.667C13.5518 50.667 16.6571 50.415 18.1523 46.887C19.4174 43.989 18.3823 41.532 17.9798 40.713C17.1747 40.839 14.8169 41.532 13.5518 44.43C12.9192 45.942 12.7467 47.517 13.1493 49.092C13.2068 49.407 13.0918 49.722 12.8042 49.785C12.5167 49.848 12.2292 49.722 12.1717 49.407C11.8841 48.147 11.6541 46.194 12.6317 43.989C14.4144 39.894 18.0948 39.579 18.2098 39.579C18.3823 39.579 18.5548 39.642 18.6698 39.831C18.7848 39.957 20.8551 43.233 19.0724 47.391C17.3472 51.486 13.7243 51.738 13.4943 51.738C13.5518 51.738 13.5518 51.738 13.4943 51.738Z" fill="white"/>
<path d="M13.3793 51.738C13.2068 51.738 9.52643 51.423 7.74375 47.328C5.96107 43.233 8.08879 39.894 8.1463 39.768C8.26131 39.642 8.43382 39.516 8.60634 39.516C8.72135 39.516 11.0791 39.705 12.9768 41.91C13.1493 42.162 13.1493 42.477 12.9768 42.666C12.7468 42.855 12.4592 42.855 12.2867 42.666C11.0791 41.217 9.52643 40.776 8.89387 40.65C8.49133 41.469 7.45623 43.863 8.72135 46.761C10.2165 50.289 13.3218 50.541 13.4368 50.541C13.7244 50.541 13.9544 50.856 13.8969 51.108C13.8969 51.549 13.6669 51.738 13.3793 51.738Z" fill="white"/>
<path d="M13.4369 56.148C13.1493 56.148 12.9193 55.896 12.9193 55.581V51.234C12.9193 50.919 13.1493 50.667 13.4369 50.667C13.7244 50.667 13.9544 50.919 13.9544 51.234V55.581C13.9544 55.896 13.7244 56.148 13.4369 56.148Z" fill="white"/>
<path d="M22.0628 8.77194H0.843114C0.555585 8.77194 0.325562 8.51994 0.325562 8.20494C0.325562 7.88994 0.555585 7.63794 0.843114 7.63794H22.0628C22.3503 7.63794 22.5803 7.88994 22.5803 8.20494C22.5803 8.51994 22.3503 8.77194 22.0628 8.77194Z" fill="white"/>
<path d="M57.3139 8.77194H36.0942C35.8067 8.77194 35.5767 8.51994 35.5767 8.20494C35.5767 7.88994 35.8067 7.63794 36.0942 7.63794H57.3139C57.6014 7.63794 57.8314 7.88994 57.8314 8.20494C57.8314 8.51994 57.6014 8.77194 57.3139 8.77194Z" fill="white"/>
<path d="M13.4369 5.81096C13.1494 5.81096 12.9194 5.55896 12.9194 5.24396V3.54296C12.9769 2.72396 12.3443 2.09396 11.5967 2.09396C10.8492 2.09396 10.2741 2.72396 10.2741 3.54296V5.24396C10.2741 5.55896 10.0441 5.81096 9.75656 5.81096C9.46904 5.81096 9.23901 5.55896 9.23901 5.24396V3.54296C9.23901 2.09396 10.2741 0.959961 11.5967 0.959961C12.9194 0.959961 13.9545 2.09396 13.9545 3.54296V5.24396C13.9545 5.55896 13.7245 5.81096 13.4369 5.81096Z" fill="white"/>
<path d="M48.5729 5.81096C48.2854 5.81096 48.0554 5.55896 48.0554 5.24396V3.54296C48.0554 2.72396 47.4228 2.09396 46.6752 2.09396C45.9277 2.09396 45.3526 2.72396 45.3526 3.54296V5.24396C45.3526 5.55896 45.1226 5.81096 44.8351 5.81096C44.5475 5.81096 44.3175 5.55896 44.3175 5.24396V3.54296C44.3175 2.09396 45.3526 0.959961 46.6752 0.959961C47.9979 0.959961 49.033 2.09396 49.033 3.54296V5.24396C49.033 5.55896 48.803 5.81096 48.5729 5.81096Z" fill="white"/>
<path d="M27.5834 20.1119H13.4369C11.1367 20.1119 9.23901 18.0329 9.23901 15.5129V8.20494C9.23901 7.88994 9.46904 7.63794 9.75657 7.63794C10.0441 7.63794 10.2741 7.88994 10.2741 8.20494V15.5129C10.2741 17.4659 11.7118 18.9779 13.4369 18.9779H27.5834C27.8709 18.9779 28.101 19.2299 28.101 19.5449C28.101 19.8599 27.8709 20.1119 27.5834 20.1119Z" fill="white"/>
<path d="M43.9724 16.0799H14.3569C13.6094 16.0799 12.9768 15.3869 12.9768 14.5679V8.26793C12.9768 7.95293 13.2068 7.70093 13.4944 7.70093C13.7819 7.70093 14.0119 7.95293 14.0119 8.26793V14.5679C14.0119 14.8199 14.1844 14.9459 14.3569 14.9459H43.9724C44.2025 14.9459 44.3175 14.7569 44.3175 14.5679V8.26793C44.3175 7.95293 44.5475 7.70093 44.835 7.70093C45.1226 7.70093 45.3526 7.95293 45.3526 8.26793V14.5679C45.3526 15.3869 44.72 16.0799 43.9724 16.0799Z" fill="white"/>
<path d="M44.8351 20.1119H31.6087C31.3212 20.1119 31.0912 19.8599 31.0912 19.5449C31.0912 19.2299 31.3212 18.9779 31.6087 18.9779H44.8351C46.6178 18.9779 47.9979 17.4029 47.9979 15.5129V8.20494C47.9979 7.88994 48.2279 7.63794 48.5155 7.63794C48.803 7.63794 49.033 7.88994 49.033 8.20494V15.5129C49.033 18.0329 47.1928 20.1119 44.8351 20.1119Z" fill="white"/>
<path d="M17.4623 26.7899H13.4369C13.1493 26.7899 12.9193 26.5379 12.9193 26.2229V19.5449C12.9193 19.2299 13.1493 18.9779 13.4369 18.9779C13.7244 18.9779 13.9544 19.2299 13.9544 19.5449V25.6559H17.0022V19.5449C17.0022 19.2299 17.2323 18.9779 17.5198 18.9779C17.8073 18.9779 18.0373 19.2299 18.0373 19.5449V26.2229C17.9798 26.5379 17.7498 26.7899 17.4623 26.7899Z" fill="white"/>
<path d="M31.6087 26.7899H27.5833C27.2958 26.7899 27.0658 26.5379 27.0658 26.2229V19.5449C27.0658 19.2299 27.2958 18.9779 27.5833 18.9779C27.8709 18.9779 28.1009 19.2299 28.1009 19.5449V25.6559H31.0912V19.5449C31.0912 19.2299 31.3212 18.9779 31.6087 18.9779C31.8963 18.9779 32.1263 19.2299 32.1263 19.5449V26.2229C32.1263 26.5379 31.8963 26.7899 31.6087 26.7899Z" fill="white"/>
<path d="M45.7551 26.7899H41.7297C41.4422 26.7899 41.2122 26.5379 41.2122 26.2229V19.5449C41.2122 19.2299 41.4422 18.9779 41.7297 18.9779C42.0172 18.9779 42.2473 19.2299 42.2473 19.5449V25.6559H45.2376V19.5449C45.2376 19.2299 45.4676 18.9779 45.7551 18.9779C46.0427 18.9779 46.2727 19.2299 46.2727 19.5449V26.2229C46.2727 26.5379 46.0427 26.7899 45.7551 26.7899Z" fill="white"/>
</svg>

<svg xmlns="http://www.w3.org/2000/svg" xmlns:xlink="http://www.w3.org/1999/xlink" width="58" height="57" fill="none" xmlns:v="https://vecta.io/nano"><g fill="#fff"><path d="M42.765 35.988c-1.438 0-2.588-1.26-2.588-2.835 0-1.386 1.783-3.906 2.185-4.4l.403-.567.403.567c.345.504 2.185 3.024 2.185 4.4-.058 1.575-1.208 2.835-2.588 2.835zm0-5.985c-.748 1.07-1.553 2.52-1.553 3.15 0 .945.7 1.7 1.553 1.7s1.553-.756 1.553-1.7c0-.63-.863-2.016-1.553-3.15zm-13.17 5.985c-1.438 0-2.588-1.26-2.588-2.835 0-1.386 1.783-3.906 2.185-4.4l.403-.567.402.567c.345.504 2.185 3.024 2.185 4.4 0 1.575-1.15 2.835-2.588 2.835zm0-5.985c-.748 1.07-1.553 2.52-1.553 3.15 0 .945.7 1.7 1.553 1.7s1.553-.756 1.553-1.7c0-.63-.805-2.016-1.553-3.15zM14.76 35.988c-1.438 0-2.588-1.26-2.588-2.835 0-1.386 1.783-3.906 2.185-4.4l.402-.567.403.567c.345.504 2.185 3.024 2.185 4.4 0 1.575-1.15 2.835-2.588 2.835zm0-5.985c-.748 1.07-1.553 2.52-1.553 3.15 0 .945.7 1.7 1.553 1.7s1.553-.756 1.553-1.7c0-.63-.805-2.016-1.553-3.15zm14.433 21.735a.53.53 0 0 1-.518-.504c0-.315.173-.567.46-.567.115 0 3.22-.252 4.715-3.78 1.265-2.898.23-5.355-.172-6.174-.805.126-3.163.82-4.428 3.717-.633 1.512-.805 3.087-.402 4.662.057.315-.058.63-.345.693s-.575-.063-.633-.378c-.288-1.26-.518-3.213.46-5.418 1.783-4.095 5.463-4.4 5.578-4.4a.51.51 0 0 1 .46.252c.115.126 2.185 3.402.403 7.56-1.725 4.095-5.348 4.347-5.578 4.347h0z"/><path d="M29.08 51.738c-.173 0-3.853-.315-5.636-4.4s.345-7.434.402-7.56c.115-.126.287-.252.46-.252.115 0 2.473.19 4.37 2.394.173.252.173.567 0 .756-.23.19-.517.19-.7 0-1.265-1.45-2.76-1.9-3.393-2.016-.403.82-1.438 3.213-.172 6.174 1.495 3.528 4.6 3.78 4.715 3.78a.5.5 0 0 1 .46.567c0 .378-.23.567-.518.567z"/><use xlink:href="#B"/><path d="M44.778 51.738a.53.53 0 0 1-.518-.504c0-.315.173-.567.46-.567.115 0 3.22-.252 4.715-3.78 1.265-2.898.23-5.355-.173-6.174-.805.126-3.163.82-4.428 3.717-.633 1.512-.805 3.087-.403 4.662.058.315-.058.63-.345.693s-.575-.063-.633-.378c-.288-1.26-.518-3.213.46-5.418 1.783-4.095 5.463-4.4 5.578-4.4a.51.51 0 0 1 .46.252c.115.126 2.185 3.402.402 7.56-1.725 4.095-5.405 4.347-5.578 4.347z"/><path d="M44.663 51.738c-.058 0-.058 0 0 0-.172 0-3.853-.315-5.635-4.4s.345-7.434.402-7.56c.115-.126.288-.252.46-.252.115 0 2.473.19 4.37 2.394.172.252.172.567 0 .756-.23.19-.518.19-.7 0-1.265-1.45-2.76-1.9-3.393-2.016-.403.82-1.438 3.213-.172 6.174 1.495 3.528 4.6 3.78 4.715 3.78a.5.5 0 0 1 .46.567c-.058.378-.288.567-.518.567z"/><use xlink:href="#B" x="15.527"/><path d="M13.494 51.738a.53.53 0 0 1-.518-.504c0-.315.173-.567.46-.567.115 0 3.22-.252 4.716-3.78 1.265-2.898.23-5.355-.172-6.174-.805.126-3.163.82-4.428 3.717-.633 1.512-.805 3.087-.402 4.662.057.315-.058.63-.345.693s-.575-.063-.633-.378c-.288-1.26-.518-3.213.46-5.418 1.783-4.095 5.463-4.4 5.578-4.4a.51.51 0 0 1 .46.252c.115.126 2.185 3.402.403 7.56-1.725 4.095-5.348 4.347-5.578 4.347h0z"/><path d="M13.38 51.738c-.173 0-3.853-.315-5.636-4.4s.345-7.434.403-7.56c.115-.126.288-.252.46-.252.115 0 2.473.19 4.37 2.394.172.252.172.567 0 .756-.23.19-.518.19-.7 0-1.208-1.45-2.76-1.9-3.393-2.016-.403.82-1.438 3.213-.173 6.11 1.495 3.528 4.6 3.78 4.715 3.78a.5.5 0 0 1 .46.567c0 .44-.23.63-.518.63z"/><use xlink:href="#B" x="-15.699"/><path d="M22.063 8.772H.843c-.288 0-.518-.252-.518-.567s.23-.567.518-.567h21.22c.288 0 .518.252.518.567s-.23.567-.518.567zm35.25 0h-21.22c-.288 0-.517-.252-.517-.567s.23-.567.517-.567h21.22c.288 0 .518.252.518.567s-.23.567-.518.567zM13.437 5.8c-.287 0-.518-.252-.518-.567v-1.7c.058-.82-.575-1.45-1.323-1.45s-1.323.63-1.323 1.45v1.7c0 .315-.23.567-.518.567s-.518-.252-.518-.567v-1.7c0-1.45 1.035-2.583 2.358-2.583s2.358 1.134 2.358 2.583v1.7c0 .315-.23.567-.518.567zm35.136 0c-.287 0-.517-.252-.517-.567v-1.7c0-.82-.633-1.45-1.38-1.45s-1.323.63-1.323 1.45v1.7c0 .315-.23.567-.518.567s-.518-.252-.518-.567v-1.7c0-1.45 1.035-2.583 2.358-2.583s2.358 1.134 2.358 2.583v1.7c0 .315-.23.567-.46.567z"/><path d="M27.583 20.112H13.437c-2.3 0-4.198-2.08-4.198-4.6V8.205c0-.315.23-.567.518-.567s.518.252.518.567v7.308c0 1.953 1.438 3.465 3.163 3.465h14.147c.287 0 .518.252.518.567s-.23.567-.518.567zm16.39-4.032H14.357c-.747 0-1.38-.693-1.38-1.512v-6.3c0-.315.23-.567.518-.567s.518.252.518.567v6.3c0 .252.172.378.345.378h29.616c.23 0 .345-.2.345-.378v-6.3c0-.315.23-.567.517-.567s.518.252.518.567v6.3c0 .82-.633 1.512-1.38 1.512z"/><path d="M44.835 20.112H31.6c-.287 0-.517-.252-.517-.567s.23-.567.517-.567h13.226c1.783 0 3.163-1.575 3.163-3.465V8.205c0-.315.23-.567.518-.567s.517.252.517.567v7.308c0 2.52-1.84 4.6-4.198 4.6zM17.462 26.8h-4.025c-.288 0-.518-.252-.518-.567v-6.678c0-.315.23-.567.518-.567s.518.252.518.567v6.1h3.048v-6.1c0-.315.23-.567.518-.567s.517.252.517.567v6.678c-.057.315-.287.567-.575.567z"/><path d="M31.6 26.8h-4.025c-.288 0-.518-.252-.518-.567v-6.678c0-.315.23-.567.518-.567s.518.252.518.567v6.1h3v-6.1c0-.315.23-.567.517-.567s.518.252.518.567v6.678c0 .315-.23.567-.518.567zm14.145 0H41.73c-.288 0-.517-.252-.517-.567v-6.678c0-.315.23-.567.517-.567s.518.252.518.567v6.1h3v-6.1c0-.315.23-.567.517-.567s.518.252.518.567v6.678c0 .315-.23.567-.518.567z"/></g><defs ><path id="B" d="M29.136 56.148c-.288 0-.518-.252-.518-.567v-4.347c0-.315.23-.567.518-.567s.518.252.518.567v4.347c0 .315-.23.567-.518.567z"/></defs></svg>
